X: 37
T: Mister Ed
C: Ray Evans and Jay Livingston (1960)
R: jig
Z: 2009 John Chambers <jc:trillian.mit.edu>
M: 6/8
L: 1/8
K: C
G \
| "C"cBA G2A | E2G C2C | "G7"B,C^C D^DE | F2D D2G \
| "G7"_A2G =A2G | _B2G =BAG | d2c B2d | "C"c3 z2 :|
z \
| "F"c2c "Fdim"Bcd | "F"c2c "Fdim"B2B | "F"c2c "Fdim"d2B | "F"c3 z2A \
| "C"G2G "Cdim"^F2A | "C"G2G E2G | "D7"^FGA ABc | "G7"d3 z2 ||
G \
| "C"cBA G2A | E2G C2C | "G7"B,C^C D^DE | F2D D2G \
| "G7"_A2G =AAG | _B2G =B2z | z6 | z3 z2 ||
G \
| "F#9"^ccc "G9"d3 | z6 | "G7"d3- d2c | B3 d3 | "C"c6- c3 z2 |] \
